svg/wallet_bifold.svg

<svg xmlns="http://www.w3.org/2000/svg" viewBox="0 0 24 24"><path d="M17 3H7C4.79 3 3 4.79 3 7v10c0 2.21 1.79 4 4 4h12c1.11 0 2-.89 2-2V9a2 2 0 0 0-2-2V5a2 2 0 0 0-2-2m0 2v2H7c-.73 0-1.41.2-2 .54V7c0-1.1.9-2 2-2m8.5 10.5c-.83 0-1.5-.67-1.5-1.5s.67-1.5 1.5-1.5 1.5.67 1.5 1.5-.67 1.5-1.5 1.5"/></svg>

<svg xmlns="http://www.w3.org/2000/svg" id="mdi-wallet-bifold" viewBox="0 0 24 24"><path d="M17 3H7C4.79 3 3 4.79 3 7V17C3 19.21 4.79 21 7 21H19C20.11 21 21 20.11 21 19V9C21 7.9 20.11 7 19 7V5C19 3.9 18.11 3 17 3M17 5V7H7C6.27 7 5.59 7.2 5 7.54V7C5 5.9 5.9 5 7 5M15.5 15.5C14.67 15.5 14 14.83 14 14S14.67 12.5 15.5 12.5 17 13.17 17 14 16.33 15.5 15.5 15.5Z" /></svg>
